X:1
T:Abendlied, 76.76 D
T:Abendlied, 76.76 D
T:Franz Schubert (1797-1828)
T:Public Domain Courtesy of the Cyber Hymnal™
C:Franz Schubert (1797-1828)
Z:Public Domain
Z:Courtesy of the Cyber Hymnal™
%%score ( 1 2 ) ( 3 4 )
L:1/8
Q:1/4=110
M:4/4
K:Eb
V:1 treble 
V:2 treble 
V:3 bass 
V:4 bass 
V:1
 [EB]2 | [EG]2 [GB]2 [FA][EG] (FE) | [B,B]4 [B,F]2 [B,G]2 | A3 z F (CE) (DF) | [B,E]6 [FB]2 | %5
 [EG]2 [EB]2 (AG) (FE) | B4 [DF]2 (dB) | [EG]3 [Gc] (B=A) (GF) | [DB]6 B2 | %9
 [Gc]2 [=EB]2 [FA]2 [EG]2 | [GB]4 [FA]2 (A=A) | [FB]2 A2 [EG]2 [DF]2 | [EG]6 [EA]2 | %13
 [EB]2 [DB]2 [Ee]2 [Bd]2 | [Bd]2 [Ac]2 [GB]2 ([FA][EG]) | [CF]2 [=EG]2 (BA) (GF) | E6 |] %17
V:2
 x2 | x6 B,2 | x8 | C2 (C2 C2) B,2 x | x8 | x4 E2 B,2 | F2 E2 F2 x2 | x4 F2 E2 | x6 (BA) | x8 | %10
 x6 F2 | x2 (EF) x4 | x8 | x8 | x8 | x4 F2 D2 | E6 |] %17
V:3
 [E,G,]2 | [E,B,]2 [B,,B,]2 [E,B,]2 (A,G,) | [D,A,]4 [D,A,]2 [E,G,]2 | %3
 [A,,E,]2 [A,,A,]2 (A,G,) (F,A,) x | [E,G,]6 [D,B,]2 | [E,B,]2 [E,_D]2 (CB,) (A,G,) | %6
 F,4 [B,,B,]2 B,2 | [E,B,]3 [C,E] (DC) (B,=A,) | [B,,B,]6 B,2 | [=E,C]2 [C,C]2 [F,C]2 C2 | %10
 [=E,C]4 [F,C]2 [_E,C]2 | [D,B,]2 B,2 [E,B,]2 [B,,B,]2 | [E,B,]6 [C,A,]2 | %13
 [E,G,]2 [F,A,]2 [G,B,]2 [G,,B,]2 | [A,,E]4 [E,E]2 [E,B,]2 | [A,C]2 [G,B,]2 [F,C]2 (B,A,) | %16
 [E,G,]6 |] %17
V:4
 x2 | x6 E,2 | x8 | x4 A,,2 B,,2 x | x8 | x4 E,2 E,2 | D,2 C,2 (B,,D,) x2 | x4 F,2 F,2 | %8
 x6 (G,F,) | x6 C2 | x8 | x2 (C,D,) x4 | x8 | x8 | x8 | x6 B,,2 | x6 |] %17

